usr/share/icons/Stylish/32/mimetypes/application-vnd.ms-word.template.macroenabled.12.svg

<?xml version="1.0" encoding="UTF-8" standalone="no"?>
<!-- Created with Inkscape (http://www.inkscape.org/) -->

<svg
   width="32"
   height="32"
   viewBox="0 0 32 32.000002"
   version="1.1"
   id="svg5"
   inkscape:version="1.2.2 (1:1.2.2+202305151914+b0a8486541)"
   sodipodi:docname="application-vnd.ms-word.template.macroenabled.12.svg"
   xmlns:inkscape="http://www.inkscape.org/namespaces/inkscape"
   xmlns:sodipodi="http://sodipodi.sourceforge.net/DTD/sodipodi-0.dtd"
   xmlns:xlink="http://www.w3.org/1999/xlink"
   xmlns="http://www.w3.org/2000/svg"
   xmlns:svg="http://www.w3.org/2000/svg">
  <sodipodi:namedview
     id="namedview7"
     pagecolor="#ffffff"
     bordercolor="#000000"
     borderopacity="0.25"
     inkscape:showpageshadow="2"
     inkscape:pageopacity="0.0"
     inkscape:pagecheckerboard="0"
     inkscape:deskcolor="#d1d1d1"
     inkscape:document-units="px"
     showgrid="false"
     inkscape:zoom="24.6875"
     inkscape:cx="15.979747"
     inkscape:cy="16"
     inkscape:window-width="1920"
     inkscape:window-height="1012"
     inkscape:window-x="0"
     inkscape:window-y="0"
     inkscape:window-maximized="1"
     inkscape:current-layer="svg5" />
  <defs
     id="defs2">
    <linearGradient
       inkscape:collect="always"
       id="linearGradient879">
      <stop
         style="stop-color:#115abe;stop-opacity:1;"
         offset="0"
         id="stop875" />
      <stop
         style="stop-color:#277dd4;stop-opacity:1;"
         offset="1"
         id="stop877" />
    </linearGradient>
    <linearGradient
       inkscape:collect="always"
       xlink:href="#linearGradient879"
       id="linearGradient3264"
       x1="7"
       y1="2"
       x2="25"
       y2="30"
       gradientUnits="userSpaceOnUse" />
    <linearGradient
       inkscape:collect="always"
       xlink:href="#linearGradient879"
       id="linearGradient3272"
       x1="7"
       y1="2"
       x2="25"
       y2="30"
       gradientUnits="userSpaceOnUse" />
    <linearGradient
       inkscape:collect="always"
       xlink:href="#linearGradient879"
       id="linearGradient3274"
       x1="7"
       y1="2"
       x2="25"
       y2="30"
       gradientUnits="userSpaceOnUse" />
    <linearGradient
       inkscape:collect="always"
       xlink:href="#linearGradient1214"
       id="linearGradient1127"
       x1="11"
       y1="14.999952"
       x2="28"
       y2="30.999979"
       gradientUnits="userSpaceOnUse" />
    <linearGradient
       inkscape:collect="always"
       id="linearGradient1214">
      <stop
         style="stop-color:#d3d3db;stop-opacity:1;"
         offset="0"
         id="stop1210" />
      <stop
         style="stop-color:#eaeaee;stop-opacity:1;"
         offset="1"
         id="stop1212" />
    </linearGradient>
  </defs>
  <path
     id="rect234"
     style="opacity:0.2;stroke-width:0.5;stroke-linecap:round;stroke-linejoin:round"
     d="m 7,3 h 12 l 8,8 v 18 c 0,1.108 -0.892,2 -2,2 H 7 C 5.892,31 5,30.108 5,29 V 5 C 5,3.892 5.892,3 7,3 Z"
     sodipodi:nodetypes="sccssssss" />
  <path
     id="rect448"
     style="fill:url(#linearGradient3264);fill-opacity:1;stroke-width:0.5;stroke-linecap:round;stroke-linejoin:round"
     d="m 7,2 h 12 l 3,5 5,3 v 18 c 0,1.108 -0.892,2 -2,2 H 7 C 5.892,30 5,29.108 5,28 V 4 C 5,2.892 5.892,2 7,2 Z"
     sodipodi:nodetypes="scccssssss" />
  <rect
     style="opacity:0.25;fill:#ffffff;fill-opacity:1;stroke-width:1.85163;stroke-linejoin:bevel"
     id="rect25302"
     width="11.999999"
     height="15.999997"
     x="10.999999"
     y="12"
     ry="0.99999952" />
  <path
     id="rect29937"
     style="opacity:0.5;fill:#ffffff;fill-opacity:1;stroke-width:3.70327;stroke-linejoin:bevel"
     d="m 11,19.999999 v 4 h 11.999995 v -4 z"
     sodipodi:nodetypes="ccccc" />
  <path
     id="path29903"
     style="opacity:0.7;fill:#ffffff;fill-opacity:1;stroke-width:1.85163;stroke-linejoin:bevel"
     d="m 11,23.999999 v 3 c 0,0.553996 0.382286,0.999995 0.857143,0.999995 h 10.285715 c 0.474856,0 0.857141,-0.445999 0.857141,-0.999995 v -3 z"
     sodipodi:nodetypes="csccscc" />
  <path
     id="rect28337"
     style="opacity:0.3;fill:#ffffff;fill-opacity:1;stroke-width:3.70327;stroke-linejoin:bevel"
     d="m 10.999999,16 v 3.999999 H 22.999995 V 16 Z"
     sodipodi:nodetypes="ccccc" />
  <path
     d="M 27,11 H 21 C 19.892,11 19,10.108 19,9 V 2 l 8,8 z"
     style="opacity:0.2;fill:#000000;stroke-width:0.5;stroke-linecap:round;stroke-linejoin:round"
     id="path611"
     sodipodi:nodetypes="cssccc" />
  <path
     id="rect600"
     style="fill:#59aded;fill-opacity:1;stroke-width:0.5;stroke-linecap:round;stroke-linejoin:round"
     d="M 27,10 H 21 C 19.892,10 19,9.108 19,8 V 2 l 4,4 z"
     sodipodi:nodetypes="cssccc" />
  <rect
     style="fill:url(#linearGradient3272);fill-opacity:1;stroke-width:0.999999"
     id="rect3242"
     width="10"
     height="10"
     x="5.9999995"
     y="14.999952"
     ry="1.9999999" />
  <rect
     style="fill:#ffffff;fill-opacity:1;stroke-width:0.499997"
     id="rect2687"
     width="8"
     height="8"
     x="7"
     y="15.999956"
     ry="0.99999964" />
  <path
     id="rect3454"
     style="fill:url(#linearGradient3274);fill-opacity:1;stroke-width:0.499997"
     d="m 7.4999999,17 1.5000002,5.999998 H 10 l 1,-4 1,4 h 1 L 14.5,17 h -1 l -1,4.000001 -1,-4.000002 h -1 l -0.9999999,4.000002 -1,-4.000002 z" />
  <path
     d="m 25.902262,18.003169 c -0.354846,0.0168 -0.705014,0.124304 -1.01176,0.328138 L 8.8937901,28.335678 c -1.645657,1.097979 -0.868903,3.663462 1.1094159,3.664204 h 15.996715 c 1.104563,-1.1e-4 1.999968,-0.895513 2.000078,-2.000077 V 19.99934 c -0.0011,-0.737521 -0.407948,-1.414601 -1.058635,-1.761786 -0.324729,-0.173767 -0.684257,-0.251284 -1.039102,-0.234385 z m -0.902263,3.996635 v 7.000001 h -11.5 z"
     style="opacity:0.2;fill:#000000;fill-opacity:1;stroke-width:4.00015;stroke-linecap:round;stroke-linejoin:round"
     id="path1075"
     sodipodi:nodetypes="ccccccccccccc" />
  <path
     id="path5201"
     style="fill:url(#linearGradient1127);fill-opacity:1;stroke-width:4.00015;stroke-linecap:round;stroke-linejoin:round"
     d="m 25.902262,17.003267 c -0.354846,0.0168 -0.705014,0.124304 -1.01176,0.328138 L 8.8937901,27.335775 c -1.645657,1.097979 -0.868903,3.663462 1.1094159,3.664204 h 15.996715 c 1.104563,-1.1e-4 1.999968,-0.895513 2.000078,-2.000077 V 18.999438 c -0.0011,-0.737521 -0.407948,-1.414601 -1.058635,-1.761786 -0.324729,-0.173767 -0.684257,-0.251284 -1.039102,-0.234385 z m -0.902263,3.996635 v 7 h -11.5 z"
     sodipodi:nodetypes="ccccccccccccc" />
</svg>

<?xml version="1.0" encoding="UTF-8" standalone="no"?>
<!-- Created with Inkscape (http://www.inkscape.org/) -->

<svg
   width="32"
   height="32"
   viewBox="0 0 32 32.000002"
   version="1.1"
   id="svg5"
   inkscape:version="1.2.1 (9c6d41e410, 2022-07-14)"
   sodipodi:docname="application-vnd.ms-word.template.macroenabled.12.svg"
   xmlns:inkscape="http://www.inkscape.org/namespaces/inkscape"
   xmlns:sodipodi="http://sodipodi.sourceforge.net/DTD/sodipodi-0.dtd"
   xmlns="http://www.w3.org/2000/svg"
   xmlns:svg="http://www.w3.org/2000/svg">
  <sodipodi:namedview
     id="namedview7"
     pagecolor="#ffffff"
     bordercolor="#000000"
     borderopacity="0.25"
     inkscape:showpageshadow="2"
     inkscape:pageopacity="0.0"
     inkscape:pagecheckerboard="0"
     inkscape:deskcolor="#d1d1d1"
     inkscape:document-units="px"
     showgrid="false"
     inkscape:zoom="25.8125"
     inkscape:cx="15.98063"
     inkscape:cy="16"
     inkscape:window-width="1920"
     inkscape:window-height="1006"
     inkscape:window-x="0"
     inkscape:window-y="0"
     inkscape:window-maximized="1"
     inkscape:current-layer="svg5" />
  <defs
     id="defs2" />
  <path
     id="rect234"
     style="opacity:0.2;stroke-width:0.5;stroke-linecap:round;stroke-linejoin:round"
     d="m 7,3 h 12 l 8,8 v 18 c 0,1.108 -0.892,2 -2,2 H 7 C 5.892,31 5,30.108 5,29 V 5 C 5,3.892 5.892,3 7,3 Z"
     sodipodi:nodetypes="sccssssss" />
  <path
     id="rect448"
     style="fill:#005a9e;fill-opacity:1;stroke-width:0.5;stroke-linecap:round;stroke-linejoin:round"
     d="m 7,2 h 12 l 3,5 5,3 v 18 c 0,1.108 -0.892,2 -2,2 H 7 C 5.892,30 5,29.108 5,28 V 4 C 5,2.892 5.892,2 7,2 Z"
     sodipodi:nodetypes="scccssssss" />
  <rect
     style="opacity:0.25;fill:#ffffff;fill-opacity:1;stroke-width:1.85163;stroke-linejoin:bevel"
     id="rect25302"
     width="11.999999"
     height="15.999997"
     x="10.999999"
     y="12"
     ry="0.99999952" />
  <path
     id="rect29937"
     style="opacity:0.5;fill:#ffffff;fill-opacity:1;stroke-width:3.70327;stroke-linejoin:bevel"
     d="m 11,19.999999 v 4 h 11.999995 v -4 z"
     sodipodi:nodetypes="ccccc" />
  <path
     id="path29903"
     style="opacity:0.7;fill:#ffffff;fill-opacity:1;stroke-width:1.85163;stroke-linejoin:bevel"
     d="m 11,23.999999 v 3 c 0,0.553996 0.382286,0.999995 0.857143,0.999995 h 10.285715 c 0.474856,0 0.857141,-0.445999 0.857141,-0.999995 v -3 z"
     sodipodi:nodetypes="csccscc" />
  <path
     id="rect28337"
     style="opacity:0.3;fill:#ffffff;fill-opacity:1;stroke-width:3.70327;stroke-linejoin:bevel"
     d="m 10.999999,16 v 3.999999 H 22.999995 V 16 Z"
     sodipodi:nodetypes="ccccc" />
  <path
     d="M 27,11 H 21 C 19.892,11 19,10.108 19,9 V 2 l 8,8 z"
     style="opacity:0.2;fill:#000000;stroke-width:0.5;stroke-linecap:round;stroke-linejoin:round"
     id="path611"
     sodipodi:nodetypes="cssccc" />
  <path
     id="rect600"
     style="fill:#79a8cc;fill-opacity:1;stroke-width:0.5;stroke-linecap:round;stroke-linejoin:round"
     d="M 27,10 H 21 C 19.892,10 19,9.108 19,8 V 2 l 4,4 z"
     sodipodi:nodetypes="cssccc" />
  <rect
     style="fill:#005a9e;fill-opacity:1;stroke-width:0.999999"
     id="rect3242"
     width="10"
     height="10"
     x="5.9999995"
     y="14.999952"
     ry="1.9999999" />
  <rect
     style="fill:#ffffff;fill-opacity:1;stroke-width:0.499997"
     id="rect2687"
     width="8"
     height="8"
     x="7"
     y="15.999956"
     ry="0.99999964" />
  <path
     id="rect3454"
     style="fill:#005a9e;fill-opacity:1;stroke-width:0.499997"
     d="m 7.4999999,17 1.5000002,5.999998 H 10 l 1,-4 1,4 h 1 L 14.5,17 h -1 l -1,4.000001 -1,-4.000002 h -1 l -0.9999999,4.000002 -1,-4.000002 z" />
  <path
     d="m 25.902263,18.003169 c -0.354846,0.0168 -0.705014,0.124304 -1.01176,0.328138 L 8.89379,28.335678 c -1.645657,1.097979 -0.868903,3.663462 1.109417,3.664204 H 25.999922 C 27.104485,31.999772 27.99989,31.104369 28,29.999805 V 19.99934 C 27.9989,19.261819 27.592052,18.584739 26.941365,18.237554 26.616636,18.063787 26.257108,17.98627 25.902263,18.003169 Z M 25,21.999804 v 7.000001 H 13.5 Z"
     style="opacity:0.2;fill:#000000;fill-opacity:1;stroke-width:4.00015;stroke-linecap:round;stroke-linejoin:round"
     id="path1075"
     sodipodi:nodetypes="ccccccccccccc" />
  <path
     id="path5201"
     style="fill:#ebebec;fill-opacity:1;stroke-width:4.00015;stroke-linecap:round;stroke-linejoin:round"
     d="m 25.902263,17.003267 c -0.354846,0.0168 -0.705014,0.124304 -1.01176,0.328138 L 8.89379,27.335775 c -1.645657,1.097979 -0.868903,3.663462 1.109417,3.664204 H 25.999922 C 27.104485,30.999869 27.99989,30.104466 28,28.999902 V 18.999438 C 27.9989,18.261917 27.592052,17.584837 26.941365,17.237652 26.616636,17.063885 26.257108,16.986368 25.902263,17.003267 Z M 25,20.999902 v 7 H 13.5 Z"
     sodipodi:nodetypes="ccccccccccccc" />
</svg>
